X:1
T:Coilsfield House
T:Coilsfield House
T:Nathaniel Gow (1763-1831)
C:Nathaniel Gow (1763-1831)
L:1/8
Q:1/4=120
M:4/4
K:G
V:1 treble 
V:1
"^Slowly" (G/A/) | (BD) (GB,) G,3 (A/B/) | (cA) (BG) (FA) D>c | (c/B/)(A/G/) (G2 F/)E/D/{F} G2 EC | %4
 (B,G) A,TF GG,G, :| (B/c/) | (dB) (dB){cd} e2 AB/c/ | d(GFG) (A/G/)F/E/ DB/c/ | %8
 dB dB (c/4d/4e3/2) (e/4f/4g3/2) | (f/g/a/g/) (f/d/e/f/) Tg2 G2 g/a/ | bgdB (c/4d/4e3/2) AB/c/ | %11
 d(GFG) (A/G/F/E/) Dc | BGDB, (CD/E/) A, D/C/ | B,G A,TF GG,G, || %14

